X: 40060
T: Throw Away The Keys
R: reel
M: 4/4
K: Dmajor
A2AB defd|a2fd edBd|A2AB defd|dBAF EFDE|
A2AB defd|a2fd edBd|A2AB defd|dBAF EFD2:|
faaf d3f|a2fd edBd|faaf defa|afdf efd2|
faaf d3f|a2fd edBd|A2AB defd|dBAF EFD2:|

